X:1
T:Title
%%score { ( 1 4 ) | ( 2 3 ) }
L:1/8
Q:1/4=100
M:4/4
K:G
V:1 treble nm="Grand Piano"
V:4 treble 
V:2 bass 
V:3 bass 
V:1
 DDDD D2 G2 | z4 A4 | DDDD D2 A2 | z4 B4 | DDDD D2 B2 | z4 c4 | BBAA G2 [CF]2 | [B,G]6 z2 | %8
w: H.~R.~Palmer * * * * *||||||||
 [Bd][ce][Bd][Ac] [GB]2 [Bd]2 | [Bd][Ac][Ac][Ac] [Ac]4 | [Ac][Bd][Ac][GB] [FA]2 [Ac]2 | %11
w: |||
 [Ac]BBB B4 | BcBA G2 B2 | BAA[DB] [Ec]4 | [GB][GB][EA][CA] [B,G]2 [CF]2 | [G,B,G]6 z2 |] %16
w: |||||
V:2
 z2 [G,B,]2 [F,A,]2 [G,B,]2 | z2 [A,C]2 [A,C]2 A,2 | z2 [A,C]2 [A,C]2 [A,C]2 | %3
 z2 [B,D]2 [B,D]2 B,2 | z2 [G,B,]2 [G,B,]2 [G,B,]2 | z2 [E,A,]2 [E,A,]2 E,2 | z2 [A,C]2 z2 A,2 | %7
 G,6 z2 | G,G,G,G, G,2 G,2 | D,D,D,D, D,4 | D,D,D,D, D,2 D,2 | G,[K:treble][G,G][G,G][G,G] [G,G]4 | %12
 [G,D][K:bass][G,E][G,D][G,C] [G,B,]2 [G,D]2 | [C,D][C,C][C,C]B,, A,,4 | B,,B,,C,C, D,2 D,2 | %15
 G,,6 z2 |] %16
V:3
 G,,6 z2 | D,6 z2 | D,6 z2 | G,6 z2 | G,,6 z2 | C,6 z2 | D,4 D,4 | x8 | x8 | x8 | x8 | %11
 x[K:treble] x7 | x[K:bass] x7 | x8 | x8 | x8 |] %16
V:4
 x8 | FFFG z2 C2 | x8 | GGGA z2 D2 | x8 | AAAB z2 A,2 | x8 | x8 | x8 | x8 | x8 | x8 | x8 | x8 | %14
 x8 | x8 |] %16

